X:92
T:The Lark on the Slaun
B:Terry "Cuz" Teahan "Sliabh Luachra on Parade" 1980
Z:Patrick Cavanagh
M:2/4
L:1/8
R:Polka
K:D
| FG FE | FA BA | dd cd | BA FE | 
FF EF | D/F/A BA | Be ed | Bc d2 :| 
| dd/c/ de | dc BA | dd/c/ de | dc B2 | 
dd/c/ de | dc BA | Be ed | Bc d2 :|| 

